public/assets/llamapay.svg

<svg fill="none" height="44" viewBox="0 0 44 44" width="44" xmlns="http://www.w3.org/2000/svg"><path clip-rule="evenodd" d="m15 32.6129c0 .7639.606 1.3871 1.3486 1.3871 3.0951-.0032 5.6868-2.2565 6.3082-5.2545h3.7756c3.496 0 6.4357-2.8606 6.5631-6.3796.0652-1.8154-.5749-3.5382-1.7993-4.8422-1.2243-1.304-2.8713-2.0264-4.6364-2.0264l-5.6711-.0064v-5.1043c0-.61685-.3915-1.16021-.9695-1.3328-.5749-.1694-1.1933.07031-1.5134.59129l-2.6569 4.31161c-.6246.7256-.8017 1.7452-.4475 2.6593.3791.9684 1.2741 1.6045 2.2871 1.6172l1.9546.032 7.0199.0064c1.0254 0 1.9795.4155 2.6941 1.1762.7085.7607 1.0815 1.7611 1.0442 2.819-.0746 2.0424-1.8086 3.7044-3.8689 3.7044l-4.9813.0064c-.7489 0-1.3486.6233-1.3486 1.3871 0 1.6397-1.0006 3.0429-2.4052 3.6021v-6.2165c0-.6808.5407-1.237 1.2026-1.237h3.3095c.4195.6106 1.1093 1.0101 1.8893 1.0101 1.2741 0 2.312-1.0676 2.312-2.378s-1.0379-2.378-2.312-2.378c-.7644 0-1.4419.3836-1.8645.9717h-3.3343c-2.1504 0-3.8999 1.7994-3.8999 4.0112z" fill="#fff" fill-rule="evenodd"/></svg>

<svg xmlns="http://www.w3.org/2000/svg" width="44" height="44" viewBox="0 0 44 44" fill="none">
  <path fill-rule="evenodd" clip-rule="evenodd" d="M15 32.6129C15 33.3768 15.606 34 16.3486 34C19.4437 33.9968 22.0354 31.7435 22.6568 28.7455H26.4324C29.9284 28.7455 32.8681 25.8849 32.9955 22.3659C33.0607 20.5505 32.4206 18.8277 31.1962 17.5237C29.9719 16.2197 28.3249 15.4973 26.5598 15.4973L20.8887 15.4909V10.3866C20.8887 9.76975 20.4972 9.22639 19.9192 9.0538C19.3443 8.8844 18.7259 9.12411 18.4058 9.64509L15.7489 13.9567C15.1243 14.6823 14.9472 15.7019 15.3014 16.616C15.6805 17.5844 16.5755 18.2205 17.5885 18.2332L19.5431 18.2652L26.563 18.2716C27.5884 18.2716 28.5425 18.6871 29.2571 19.4478C29.9656 20.2085 30.3386 21.2089 30.3013 22.2668C30.2267 24.3092 28.4927 25.9712 26.4324 25.9712L21.4511 25.9776C20.7022 25.9776 20.1025 26.6009 20.1025 27.3647C20.1025 29.0044 19.1019 30.4076 17.6973 30.9668V24.7503C17.6973 24.0695 18.238 23.5133 18.8999 23.5133H22.2094C22.6289 24.1239 23.3187 24.5234 24.0987 24.5234C25.3728 24.5234 26.4107 23.4558 26.4107 22.1454C26.4107 20.835 25.3728 19.7674 24.0987 19.7674C23.3343 19.7674 22.6568 20.151 22.2342 20.7391H18.8999C16.7495 20.7391 15 22.5385 15 24.7503V32.6129Z" fill="white"/>
</svg>
